X: 38169
T: Sportsman's, The
R: hornpipe
M: 4/4
K: Adorian
AB|:c2c2 B2BA|GABc dBGB|c2c2 B2BA|E2AG A2B2|
c2c2 B2BA|GABc d2ef|gfge dBAG|1 E2AG A2B2:|2 E2AG A2Ac||
|:ABcd efg/f/e|afdf edcB|ABcd efg/f/e|afdf e2ef/g/|
a2ae g2gB|c2ce dBGB|c2cA BcBA|1 E2AG A2Ac:|2 E2AG A2B2||

